X: 22
T: Laihama shang shu
%%abc-version 2.0
%%abcx-abcm2ps-target-version 5.9.1 (29 Sep 2008)
%%abc-creator hum2abc beta
%%abcx-conversion-date 2013/10/02 07:52:29
%%abc-edited-by Helmut Schaffrath
%%humdrum-veritas 389542361
%%humdrum-veritas-data 3861653031
%%continueall 1
%%barnumbers 0
L: 1/16
M: 2/4
K: D
B A B dE4 [I:setbarnb 1]| 
B A B de4 | 
d B2 A A2 A B | 
e8 | 
B A B dE4 | 
B A B de4 | 
d B2 A A2 A B | 
A8 |]  



